X: 315
T:Tant con je vivrai
C:Adam de la Halle
F:https://gallica.bnf.fr/ark:/12148/btv1b6001348v/f75.item
F:https://archive.org/details/oeuvrescompltes00cousgoog/page/n315
Z:Ali Corbin <ali.corbin:gmail.com>
N: (condensed)
M:3/4
L:1/4
Q:1/4=140
K:D Dorian
%
%%MIDI program 1       42 Cello
%%MIDI program 2       72 piccolo
%%MIDI program 3       70 bassoon
V:1 clef=treble
V:2 clef=treble
V:3 clef=treble_8
%
[V:1]     (A2_B)|       A ((3G/F/E/) F |(G2A)| G ((3F/E/D/) C | D3   ||    E3  | G ((3:2:2^F/E) G | A3  ||
[V:2]     (E2 F)|((3:2:2E/D  C2)       | D3  |(D    E2)       | G3   ||    A3  | G ((3:2:2^F/E) D | E3  || 
[V:3]      A,3  |       A,3            | G,3 |(G,   A,2)      | G,3  ||    A,3 | C3               | A,3 ||
w:  1.5.9.~Tant         con              je    viv-*            rai  2.10.~N'a-  me-                rai
w:6.~~~~~~~Ains         vous             ser-  vi-*             rai 7.~~~~~Loi-  au-                ment     
%
[V:1]   A3 | G ((3:2:2^F/E) F | G3  | G2 ((3:2:2=F/E) | ((3:2:2D/CDE)  | F3  ||  (A2_B)|       A ((3G/F/E/) F |(G2A)| G ((3F/E/D/) C | D3   ||
[V:2]  (E3 | DC2)             | D3  |(D3              | C   B,2)       | C3  ||  (E2 F)|((3:2:2E/D  C2)       | D3  |(D    E2)       | G3   ||
[V:3]   A,6                   | G,3 | G,6                              | F,3 ||   A,3  |       A,3            | G,3 |(G,   A,2)      | G,3  ||
w:3.11.~Au-                     trui  que                                vous. 4.~Ja           n'en             par-  ti-*             rai 
w:8.~~~~~mis                    m'i   sui                               tous       ~            ~                ~     ~    ~           ~
W:
W:Tant con je vivrai % So long as I live 
W:N'amerai           % I'll not love 
W:Autrui que vous.   % Anyone but you. 
W:
W:Ja n'en partirai   % I'll not leave you 
W:
W:
W:Tant con je vivrai 
W:
W:Ains vous servirai % And so I'll serve you 
W:Loiaument          % Loyally 
W:mis m'i sui tous   % I have completely put myself there 
W:
W:Tant con je vivrai 
W:N'amerai
W:Autrui que vous. 


